packages/icons/svg/Outline/music.svg

<svg width="24" height="24" viewBox="0 0 24 24" fill="none" xmlns="http://www.w3.org/2000/svg">
<g id="Icon/Outline/music">
<path id="Mask" fill-rule="evenodd" clip-rule="evenodd" d="M15.5077 17.0063C14.6847 17.0063 14.0157 16.3373 14.0157 15.5143C14.0157 14.6913 14.6847 14.0223 15.5077 14.0223C16.2287 14.0223 16.8297 14.5343 16.9697 15.2133V15.2143C16.9887 15.3113 16.9997 15.4113 16.9997 15.5143C16.9997 16.3373 16.3307 17.0063 15.5077 17.0063ZM6.5357 19.0003C5.7127 19.0003 5.0437 18.3303 5.0437 17.5073C5.0437 16.6853 5.7127 16.0153 6.5357 16.0153C7.2557 16.0153 7.8577 16.5273 7.9977 17.2063V17.2093C8.0177 17.3053 8.0287 17.4053 8.0287 17.5073C8.0287 18.3303 7.3597 19.0003 6.5357 19.0003ZM18.9467 14.9923V4.00027C18.9467 3.69627 18.8097 3.40927 18.5727 3.21927C18.3357 3.03027 18.0247 2.95827 17.7307 3.02427L8.7587 5.01727C8.3007 5.11927 7.9757 5.52527 7.9757 5.99327V14.3343C7.5347 14.1343 7.0507 14.0153 6.5357 14.0153C4.6107 14.0153 3.0437 15.5823 3.0437 17.5073C3.0437 19.4333 4.6107 21.0003 6.5357 21.0003C8.4617 21.0003 10.0287 19.4333 10.0287 17.5073C10.0287 17.3293 10.0017 17.1573 9.9757 16.9853V6.79627L16.9467 5.24627V12.3403C16.5067 12.1403 16.0227 12.0223 15.5077 12.0223C13.5817 12.0223 12.0157 13.5883 12.0157 15.5143C12.0157 17.4403 13.5817 19.0063 15.5077 19.0063C17.4337 19.0063 18.9997 17.4403 18.9997 15.5143C18.9997 15.3353 18.9737 15.1643 18.9467 14.9923Z" fill="#000000"/>
</g>
</svg>

<svg fill="none" height="24" viewBox="0 0 24 24" width="24" xmlns="http://www.w3.org/2000/svg"><path clip-rule="evenodd" d="m15.5078 17.0062c-.823 0-1.492-.669-1.492-1.492s.669-1.492 1.492-1.492c.721 0 1.322.512 1.462 1.191v.001c.019.097.03.197.03.3 0 .823-.669 1.492-1.492 1.492zm-8.97196 1.994c-.823 0-1.492-.67-1.492-1.493 0-.822.669-1.492 1.492-1.492.72 0 1.322.512 1.462 1.191v.003c.02.096.031.196.031.298 0 .823-.669 1.493-1.493 1.493zm12.41096-4.008v-10.99199c0-.304-.137-.591-.374-.781-.237-.189-.548-.261-.842-.195l-8.97198 1.993c-.458.102-.783.508-.783.976v8.34099c-.441-.2-.925-.319-1.44-.319-1.925 0-3.492 1.567-3.492 3.492 0 1.926 1.567 3.493 3.492 3.493 1.926 0 3.49298-1.567 3.49298-3.493 0-.178-.027-.35-.05298-.522v-10.18899l6.97098-1.55v7.09399c-.44-.2-.924-.318-1.439-.318-1.926 0-3.492 1.566-3.492 3.492s1.566 3.492 3.492 3.492 3.492-1.566 3.492-3.492c0-.179-.026-.35-.053-.522z" fill="#6b7280" fill-rule="evenodd"/></svg>
